!!!OTL: 715. Treuer Tod.
!!!COM: A.-E. Choron
!!!ODT: 1806
!!!ARE: Europa, Mitteleuropa, Deutschland; France
!!!SCT: B0715
!!!TXL: @@DE
!!!YEM: Copyright 1995, estate of Helmut Schaffrath.
**kern	**text
*ICvox	*
*Ivox	*
*clefG2	*
*M4/4	*
*met(c)	*
*k[b-e-]	*
*B-:	*
!LO:TX:a:t=Mäßig	!
{8b-	Der
8.cc	Rit-
16dd	-ter
=1	=1
4.f	muß
8g	ʒum
8.f	blut-
16e-	-gen
8.c	Kampf
16d	hin-
=2	=2
2B-	-aus,
8r}	.
{8f	für
8.b-	Frei-
16cc	-heit
=3	=3
4.dd	Ruhm
8cc	und
8.b-	Va-
16cc	-ter-
8.dd	-land
16ee-	ʒu
=4	=4
4cc	ſtrei-
4f	-ten;
8r}	.
{8b-	da
8.cc	ʒieht
16dd	er
=5	=5
4.en	noch
8g	vor
8.f	ſei-
16e	-nes
8.d	Lieb-
16c	-chens
=6	=6
8.f}	Haus
{16g	nicht
8.a	oh-
16b-	-ne
8.cc	Ab-
16dd	-ſchied
8.cc	will
16b-	er
=7	=7
4a	von
8b-L	ihr
8gJ	.
(4f	ſchei-
8aL)	.
8gJ	.
=8	=8
4f	-den.
4r	.
8r}	.
{8f	"O
8.cc	wei-
16b-	-ne
=9	=9
4.a	nicht
8g	die
8fL	Aeug-
8ee-J	.
8ddL	-lein
8ccJ	.
=10	=10
2b-	roth,
8r}	.
{8g	als
8.dd	ob
16cc	nicht
=11	=11
4.b-	Troſt
8b-	und
8ccL	Hoff-
8ddJ	.
8ccL	-nung
8b-J	.
=12	=12
4cc	blie-
4f	-be!
2r}	.
=13||	=13||
{4dd	Bleib'
8.ee-	ich
16dd	doch
8.cc	treu
16cc	bis
8.ff	in
16a	den
=14	=14
8.b-	Tod,
16b-	bleib'
8.cc	ich
16b-	doch
8.a	treu
16a	bis
8.dd	in
16f#	den
=15	=15
8.g}	Tod
{16b-	dem
8.a	Va-
16g	-ter-
8f	-land
8b-	und
8a	mei-
8b-	-ner
=16	=16
(4cc	Lie-
4f)	.
4dd	-be.
4r}	.
=17	=17
{4dd	Bleib'
8.ee-	ich
16dd	doch
8.cc	treu
16cc	bis
8.ff	in
16a	den
=18	=18
8.b-	Tod,
16b-	bleib'
8.cc	ich
16b-	doch
8.a	treu
16a	bis
8.dd	in
16f#	den
=19	=19
8.g}	Tod
{16b-	dem
8.a	Va-
16g	-ter-
8f	-land
8b-	und
8a	mei-
8b-	-ner
=20	=20
(4cc	Lie-
4a)	.
8.dd	-be
16ee-	und
!LO:TX:a:t=rallent.	!
8.g	mei-
16cc	-ner
=21	=21
(4b-SS	Lie-
8ddL	.
8ccJ)	.
4b-	-be.
4r}	.
==	==
!!!AGN: Kriegs -, Helden - Lied
!!!GTL: Auslaendische Weisen, die in Deutschland gesungen wurden
!!!ONB: ESAC (Essen Associative Code) Database: BOEHME
!!!AMT: simple quadruple
!!!AIN: vox
!!!EED: Helmut Schaffrath
!!!EEV: 1.0
!!Mel. von Choron. 1806.
!!@@COMMENT:"Gedicht von Theodor Körner 1813. Gedichtet ʒu Döblingen bei Wien. Vergl. Drei deutſche Gedichte". Leipʒig 1813. 
!!Ʒwölf freie deutſche Gedichte. Leipʒig 1813, 1814. Leyer und Schwert. (Ausgabe vom Vater des Dichters 
!!veranſtaltet. ) Berlin 1814. - Die Melodie gehört ʒu einer franʒöſiſchen Romanʒe "La Sentinelle", komponirt von Alexandre-Etienne Choron. Jn einer Collection 1806 ſchon gedruckt. Jm "Preuß. Soldatenliederbuch" Nr. 32 mit einer kleinen Abweichung in der Melodie. Hier die Notation nach Erks Germania" Nr. 251. Jn geſchriebenen
!!Soldatenliederheften fand ich den Anfang: "Der Krieger muß" rc."
!!@@END:
!!!Text: Th. Körner
!!!URL-scan: https://archive.org/details/BoehmeVtLieder1895/page/n567/mode/2up
!!!ENC: Anna Maria Matuszewska
!!!EEV: 2024/18/07
*-	*-
